X:534
T:Damond and Fillis. JBut.532
T:Damon and Phyllis
C:'A Troop'
B:John Buttrey MS, poss. Lincolnshire, early 19thC
S:https://buttreymilitarysocialtunes1800.wordpress.com/
Z:Village Music Project 2019 Eric Conrad
M:4/4
Q:1/2=84
L:1/8
N:Damon and Phyllis are stock young lovers in many pastoral poems from at least the 16thC
N:NB1- A is undotted in ms
N:NB2- B part bar 1 has BABc d (3def | [short measure]
N:NB3- D is dotted in ms
K:D
P:A
|: D | F2DF A2FA | d3/f/ e3/f/ d3A | d2fd B2cd | e3/c/ AA "_NB1"A3 :|
P:B
|: A | BABc "_NB2"d2 (3def | ABAG F2E2 | DFAc dBGE | F2GA F"_NB3"D2 :|

